mimetypes/symbolic/application-certificate-symbolic.svg

<svg height="16" viewBox="0 0 16 16" width="16" xmlns="http://www.w3.org/2000/svg"><path d="m3.2 2.4c-.666 0-1.2.534-1.2 1.2v6a1.2 1.2 0 0 0 1.2 1.2h4.8v3l1.8-1.8 1.8 1.8v-3h1.2a1.2 1.2 0 0 0 1.2-1.2v-4.2-1.2-.6a1.2 1.2 0 0 0 -1.2-1.2h-2.4zm4.8 1.2 1.8 1.2 1.8-1.2v2.1l1.8.9-1.8.9v2.1l-1.8-1.2-1.8 1.2v-2.1l-1.8-.9 1.8-.9zm-4.8 0h3v1.2h-3zm0 2.4h1.8v1.2h-1.8zm0 2.4h3v1.2h-3z" fill="#bebebe"/></svg>

<?xml version="1.0" encoding="UTF-8" standalone="no"?>
<svg
   xmlns:osb="http://www.openswatchbook.org/uri/2009/osb"
   xmlns:dc="http://purl.org/dc/elements/1.1/"
   xmlns:cc="http://creativecommons.org/ns#"
   xmlns:rdf="http://www.w3.org/1999/02/22-rdf-syntax-ns#"
   xmlns:svg="http://www.w3.org/2000/svg"
   xmlns="http://www.w3.org/2000/svg"
   xmlns:sodipodi="http://sodipodi.sourceforge.net/DTD/sodipodi-0.dtd"
   xmlns:inkscape="http://www.inkscape.org/namespaces/inkscape"
   version="1.1"
   width="16"
   height="16"
   viewBox="0 0 16 16"
   id="svg2"
   inkscape:version="0.91 r13725"
   sodipodi:docname="application-certificate-symbolic.svg">
  <metadata
     id="metadata10">
    <rdf:RDF>
      <cc:Work
         rdf:about="">
        <dc:format>image/svg+xml</dc:format>
        <dc:type
           rdf:resource="http://purl.org/dc/dcmitype/StillImage" />
        <dc:title></dc:title>
      </cc:Work>
    </rdf:RDF>
  </metadata>
  <defs
     id="defs8">
    <linearGradient
       id="linearGradient5606"
       osb:paint="solid">
      <stop
         id="stop5608" />
    </linearGradient>
    <linearGradient
       id="linearGradient4207"
       osb:paint="gradient">
      <stop
         style="stop-color:#3498db;stop-opacity:1;"
         offset="0"
         id="stop3371" />
      <stop
         style="stop-color:#3498db;stop-opacity:0;"
         offset="1"
         id="stop3373" />
    </linearGradient>
  </defs>
  <sodipodi:namedview
     pagecolor="#ffffff"
     bordercolor="#666666"
     borderopacity="1"
     objecttolerance="10"
     gridtolerance="10"
     guidetolerance="10"
     inkscape:pageopacity="0"
     inkscape:pageshadow="2"
     inkscape:window-width="640"
     inkscape:window-height="480"
     id="namedview6"
     showgrid="false"
     inkscape:zoom="13.229167"
     inkscape:cx="0.86266192"
     inkscape:cy="10.807619"
     inkscape:current-layer="svg2" />
  <path
     d="M 3.2,2.4 C 2.534,2.4 2,2.934 2,3.6 l 0,6 a 1.2,1.2 0 0 0 1.2,1.2 l 4.8,0 0,3 1.8,-1.8 1.8,1.8 0,-3 1.2,0 A 1.2,1.2 0 0 0 14,9.6 L 14,5.4 14,4.2 14,3.6 A 1.2,1.2 0 0 0 12.8,2.4 l -2.4,0 0,0 -7.2,0 m 4.8,1.2 1.8,1.2 1.8,-1.2 0,2.1 1.8,0.9 -1.8,0.9 0,2.1 L 9.8,8.4 8,9.6 8,7.5 6.2,6.6 8,5.7 8,3.6 m -4.8,0 3,0 0,1.2 -3,0 0,-1.2 M 3.2,6 5,6 5,7.2 3.2,7.2 3.2,6 m 0,2.4 3,0 0,1.2 -3,0 0,-1.2 z"
     id="path4"
     style="fill:#bebebe;fill-opacity:1"
     inkscape:connector-curvature="0" />
</svg>
